assets/global/linkedin-icon.svg

<svg enable-background="new 0 0 23.8 23.7" viewBox="0 0 23.8 23.7" xmlns="http://www.w3.org/2000/svg"><path d="m5.3 23.7h-4.9v-15.8h4.9zm-2.4-18c-1.6 0-2.9-1.3-2.9-2.8s1.3-2.9 2.8-2.9 2.9 1.3 2.9 2.9c0 1.5-1.3 2.8-2.8 2.8zm20.8 18h-4.9v-7.7c0-1.8 0-4.2-2.6-4.2s-3 2-3 4.1v7.8h-4.8v-15.8h4.7v2.1h.1c.7-1.2 2.3-2.6 4.7-2.6 5 0 5.9 3.3 5.9 7.5z" fill="#b3b3b3"/></svg>

<?xml version="1.0" encoding="utf-8"?>
<!-- Generator: Adobe Illustrator 23.0.3, SVG Export Plug-In . SVG Version: 6.00 Build 0)  -->
<svg version="1.1" id="Layer_1" xmlns="http://www.w3.org/2000/svg" xmlns:xlink="http://www.w3.org/1999/xlink" x="0px" y="0px"
	 viewBox="0 0 23.8 23.7" style="enable-background:new 0 0 23.8 23.7;" xml:space="preserve">
<style type="text/css">
	.st0{fill:#B3B3B3;}
</style>
<title>Asset 1</title>
<g>
	<g id="Layer_1-2">
		<path class="st0" d="M5.3,23.7H0.4V7.9h4.9V23.7z M2.9,5.7C1.3,5.7,0,4.4,0,2.9S1.3,0,2.8,0s2.9,1.3,2.9,2.9c0,0,0,0,0,0
			C5.7,4.4,4.4,5.7,2.9,5.7z M23.7,23.7h-4.9V16c0-1.8,0-4.2-2.6-4.2c-2.6,0-3,2-3,4.1v7.8H8.4V7.9h4.7V10h0.1
			c0.7-1.2,2.3-2.6,4.7-2.6c5,0,5.9,3.3,5.9,7.5L23.7,23.7z"/>
	</g>
</g>
</svg>
